papirus/22x22/apps/puddletag.svg

<svg height="22" width="22" xmlns="http://www.w3.org/2000/svg"><g transform="translate(-1 1)"><path d="m12 2c-2.8475 0-5.2725 1.8442667-6.3165 4.4544001-2.65065.4170667-4.6835 2.8074669-4.6835 5.7274659 0 3.213334 2.46245 5.818134 5.5 5.818134h11.6875c2.658 0 4.8125-2.279466 4.8125-5.090667 0-2.613333-1.8575-4.754666-4.254-5.0458657-.625-3.3354673-3.409-5.8634673-6.746-5.8634673z" fill="#ec6295"/><path d="m16 6.5l-6 2v1 3.269531a2 2 0 0 0 -1-.269531 2 2 0 0 0 -2 2 2 2 0 0 0  2 2 2 2 0 0 0  2-2v-5.333984l4-1.332032v2.935547c-.303885-.17609-.648783-.26905-1-.269531-1.104569 0-2 .895431-2 2 0 1.104569.895431 2 2 2 1.104569 0 2-.895431 2-2v-5z" opacity=".2"/><path d="m16 6l-6 2v1 3.269531a2 2 0 0 0 -1-.269531 2 2 0 0 0 -2 2 2 2 0 0 0  2 2 2 2 0 0 0  2-2v-5.333984l4-1.3320316v2.9355466c-.303885-.17609-.648783-.26905-1-.269531-1.104569 0-2 .895431-2 2 0 1.104569.895431 2 2 2 1.104569 0 2-.895431 2-2v-5z" fill="#fff"/><path d="m12 2c-2.8475 0-5.2724062 1.8449447-6.3164062 4.4550781-2.6506501.4170667-4.6835938 2.8065639-4.6835938 5.7265629 0 .10733.0102008.212461.015625.318359.0840924-2.835117 2.073754-5.136735 4.6679688-5.5449219 1.044-2.6101334 3.4689062-4.4550781 6.3164062-4.4550781 3.337 0 6.121094 2.5278143 6.746094 5.863281 2.340753.284426 4.154571 2.338775 4.238281 4.869141.00638-.107285.015625-.213281.015625-.322266 0-2.613333-1.857406-4.755675-4.253906-5.0468748-.625-3.3354672-3.409094-5.8632812-6.746094-5.8632812z" fill="#fff" opacity=".2"/><path d="m1.015625 12c-.0018294.061676-.015625.119471-.015625.181641 0 3.213334 2.46245 5.818359 5.5 5.818359h11.6875c2.658 0 4.8125-2.278643 4.8125-5.089844 0-.06079-.013631-.117472-.015625-.177734-.15819 2.660061-2.241921 4.767578-4.796875 4.767578h-11.6875c-2.9360914 0-5.3274059-2.435443-5.484375-5.5z" opacity=".3"/></g></svg>

<?xml version="1.0" encoding="UTF-8" standalone="no"?>
<!-- Created with Inkscape (http://www.inkscape.org/) -->

<svg
   xmlns:dc="http://purl.org/dc/elements/1.1/"
   xmlns:cc="http://creativecommons.org/ns#"
   xmlns:rdf="http://www.w3.org/1999/02/22-rdf-syntax-ns#"
   xmlns:svg="http://www.w3.org/2000/svg"
   xmlns="http://www.w3.org/2000/svg"
   xmlns:sodipodi="http://sodipodi.sourceforge.net/DTD/sodipodi-0.dtd"
   xmlns:inkscape="http://www.inkscape.org/namespaces/inkscape"
   id="svg2817"
   height="22"
   width="22"
   version="1.0"
   inkscape:version="0.91 r13725"
   sodipodi:docname="puddletag.svg">
  <defs
     id="defs11" />
  <sodipodi:namedview
     pagecolor="#ffffff"
     bordercolor="#666666"
     borderopacity="1"
     objecttolerance="10"
     gridtolerance="10"
     guidetolerance="10"
     inkscape:pageopacity="0"
     inkscape:pageshadow="2"
     inkscape:window-width="1600"
     inkscape:window-height="849"
     id="namedview9"
     showgrid="false"
     inkscape:zoom="19.88"
     inkscape:cx="6.3441838"
     inkscape:cy="13.187294"
     inkscape:window-x="0"
     inkscape:window-y="0"
     inkscape:window-maximized="1"
     inkscape:current-layer="svg2817" />
  <metadata
     id="metadata57">
    <rdf:RDF>
      <cc:Work
         rdf:about="">
        <dc:format>image/svg+xml</dc:format>
        <dc:type
           rdf:resource="http://purl.org/dc/dcmitype/StillImage" />
        <dc:title></dc:title>
      </cc:Work>
    </rdf:RDF>
  </metadata>
  <g
     id="g4176"
     transform="translate(-1,1)">
    <path
       d="M 12,2 C 9.1525,2 6.7275,3.8442667 5.6835,6.4544001 3.03285,6.8714668 1,9.261867 1,12.181866 1,15.3952 3.46245,18 6.5,18 l 11.6875,0 C 20.8455,18 23,15.720534 23,12.909333 23,10.296 21.1425,8.154667 18.746,7.8634673 18.121,4.528 15.337,2 12,2 Z"
       style="fill:#ec6295;fill-opacity:1;enable-background:new"
       id="path5884"
       inkscape:connector-curvature="0" />
    <path
       style="opacity:0.2;fill:#000000;fill-opacity:1;stroke:none;stroke-width:1;stroke-miterlimit:4;stroke-dasharray:none;stroke-opacity:1"
       d="m 16,6.5 -6,2 0,1 0,3.269531 A 2,2 0 0 0 9,12.5 a 2,2 0 0 0 -2,2 2,2 0 0 0 2,2 2,2 0 0 0 2,-2 l 0,-5.333984 4,-1.332032 0,2.935547 C 14.696115,10.593441 14.351217,10.500481 14,10.5 c -1.104569,0 -2,0.895431 -2,2 0,1.104569 0.895431,2 2,2 1.104569,0 2,-0.895431 2,-2 l 0,-5 0,-1 z"
       id="path4167"
       inkscape:connector-curvature="0" />
    <path
       inkscape:connector-curvature="0"
       id="path4156"
       d="m 16,6 -6,2 0,1 0,3.269531 A 2,2 0 0 0 9,12 a 2,2 0 0 0 -2,2 2,2 0 0 0 2,2 2,2 0 0 0 2,-2 l 0,-5.333984 4,-1.3320316 0,2.9355466 C 14.696115,10.093441 14.351217,10.000481 14,10 c -1.104569,0 -2,0.895431 -2,2 0,1.104569 0.895431,2 2,2 1.104569,0 2,-0.895431 2,-2 l 0,-5 0,-1 z"
       style="opacity:1;fill:#ffffff;fill-opacity:1;stroke:none;stroke-width:1;stroke-miterlimit:4;stroke-dasharray:none;stroke-opacity:1" />
    <path
       inkscape:connector-curvature="0"
       id="path4165"
       d="M 12,2 C 9.1525,2 6.7275938,3.8449447 5.6835938,6.4550781 3.0329437,6.8721448 1,9.261642 1,12.181641 1,12.288971 1.0102008,12.394102 1.015625,12.5 1.0997174,9.664883 3.089379,7.363265 5.6835938,6.9550781 6.7275938,4.3449447 9.1525,2.5 12,2.5 c 3.337,0 6.121094,2.5278143 6.746094,5.863281 2.340753,0.284426 4.154571,2.338775 4.238281,4.869141 C 22.990755,13.125137 23,13.019141 23,12.910156 23,10.296823 21.142594,8.154481 18.746094,7.8632812 18.121094,4.527814 15.337,2 12,2 Z"
       style="opacity:0.2;fill:#ffffff;fill-opacity:1;enable-background:new" />
    <path
       inkscape:connector-curvature="0"
       id="path4171"
       d="M 1.015625,12 C 1.0137956,12.061676 1,12.119471 1,12.181641 1,15.394975 3.46245,18 6.5,18 l 11.6875,0 C 20.8455,18 23,15.721357 23,12.910156 23,12.849366 22.986369,12.792684 22.984375,12.732422 22.826185,15.392483 20.742454,17.5 18.1875,17.5 L 6.5,17.5 C 3.5639086,17.5 1.1725941,15.064557 1.015625,12 Z"
       style="opacity:0.3;fill:#000000;fill-opacity:1;enable-background:new" />
  </g>
</svg>
